X:53
T:Trip to Bermondsey Spa. THO5.053, A
M:2/4
L:1/8
B:Thompson's Complete Collection of 200 Favourite Dances Vol.5
F:https://www.libraryofdance.org/manuals/1780c-Thompson-Compleat-5.pdf
Z:vmp. Peter Dunk 2024
Q:1/4=100
K:D
f|e/d/e/f/ df|e/d/e/f/ dA|BAGF|[EC][E/C/][E/C/] [CE]f|
e/d/e/f/ df|e/d/e/f/ dA|B/c/d/e/ dc|d/A/F/A/ D:|
|:a|g/f/g/a/ fa|g/f/g/a/ fa|bagf|[e/c/][e/c/][ec] [ec]f|
e/d/e/f/ df|f/e/g/e/ dA|B/c/d/e/ fe|dd/d/ d:|
W:
W:The 1st and 2nd Couples change sides and back again ./.
W:The 3rd Couple Pomenade round ./:
W:Lead down the middle, up again and cast off :/.
W:Allemand with your partner :/:

